X:860
T: Rising Sun (B)
T: \'Eir\'i na Gr\'eine
S: B.Breathnach: "Ceol Rince na hEireann" II/260
Z: B.Black
L: 1/8
M: 4/4
R: reel
K: D
d2 dB A2 FA|Beee fdBd|d2 dB ABAF|EDEF D2 z2|
d2 dB (3ABA FA|Beee fd A2|d2 dB ABAF|EDEF d2 ||
Ad|d2 fd Adfd|e2 fd edAd|d2 fd Adfd|Beef e2 Ad|
d2 fd Adfd|e2 fd edBd|dedB ABAF|EDEF D2 z2 ||

